public/favicon.svg

<svg fill="none" height="800" viewBox="0 0 24 24" width="800" xmlns="http://www.w3.org/2000/svg"><g fill="#1c274c"><path d="m22 12c0 5.5228-4.4772 10-10 10-5.52285 0-10-4.4772-10-10 0-5.52285 4.47715-10 10-10 5.5228 0 10 4.47715 10 10z" opacity=".5"/><path d="m16.807 19.0112c-1.3672.9392-3.0229 1.4888-4.807 1.4888s-3.43977-.5497-4.807-1.4889c-.60385-.4148-.86191-1.2049-.51081-1.8479.72782-1.333 2.22754-2.1632 5.31781-2.1632 3.0903 0 4.59.8303 5.3178 2.1632.3511.643.093 1.4332-.5108 1.848z"/><path d="m12 12c1.6569 0 3-1.3431 3-3 0-1.65685-1.3431-3-3-3-1.6568 0-2.99996 1.34315-2.99996 3 0 1.6569 1.34316 3 2.99996 3z"/></g></svg>

<?xml version="1.0" encoding="utf-8"?><!-- Uploaded to: SVG Repo, www.svgrepo.com, Generator: SVG Repo Mixer Tools -->
<svg width="800px" height="800px" viewBox="0 0 24 24" fill="none" xmlns="http://www.w3.org/2000/svg">
<path opacity="0.5" d="M22 12C22 17.5228 17.5228 22 12 22C6.47715 22 2 17.5228 2 12C2 6.47715 6.47715 2 12 2C17.5228 2 22 6.47715 22 12Z" fill="#1C274C"/>
<path d="M16.807 19.0112C15.4398 19.9504 13.7841 20.5 12 20.5C10.2159 20.5 8.56023 19.9503 7.193 19.0111C6.58915 18.5963 6.33109 17.8062 6.68219 17.1632C7.41001 15.8302 8.90973 15 12 15C15.0903 15 16.59 15.8303 17.3178 17.1632C17.6689 17.8062 17.4108 18.5964 16.807 19.0112Z" fill="#1C274C"/>
<path d="M12 12C13.6569 12 15 10.6569 15 9C15 7.34315 13.6569 6 12 6C10.3432 6 9.00004 7.34315 9.00004 9C9.00004 10.6569 10.3432 12 12 12Z" fill="#1C274C"/>
</svg>
